symbols/web/volcano/materialsymbolsoutlined/volcano_fill1_20px.svg

<svg xmlns="http://www.w3.org/2000/svg" height="20" width="20"><path d="M1.667 18.333 5 10.833h2.5l1.667-4.166H15l3.333 11.666Zm9.541-14.5V1.25h.917v2.583Zm3.396 1.417-.646-.646 1.834-1.833.646.646Zm-5.875 0L6.896 3.417l.646-.646 1.833 1.833Z"/></svg>

<svg xmlns="http://www.w3.org/2000/svg" height="20" width="20"><path d="M1.667 18.333 5 10.833H7.5L9.167 6.667H15L18.333 18.333ZM11.208 3.833V1.25H12.125V3.833ZM14.604 5.25 13.958 4.604 15.792 2.771 16.438 3.417ZM8.729 5.25 6.896 3.417 7.542 2.771 9.375 4.604Z"/></svg>
